X:1001
T:A Virgin Most Pure
R:Mazurka
C:Trad
O:England
Z:Paul Hardy's Xmas Tunebook 2019 (see www.paulhardy.net). Creative Commons cc by-nc-sa licenced.
M:3/4
L:1/8
Q:1/4=120
K:G
Bc|"G"d2 e2 dc|"D"B2 A2 "G"dB|"Am"cd e2 "D7"d2|"G"G4 Bc|"G"d2 e2 dc|"D"B2 A2 "G"dB|"Am"cd e2 "D7"d2|"G"G4|
|:GA|"D"B2 A2 d2|"Am"cB A2 e2|"G"d2 gf "A7"e2|"D"d4 "G"Bc|d2 e2 dc|"D"B2 A2 "G"dB|"Am"cd e2 "D7"d2|"G"G4:|
W:A virgin most pure, as the prophets do tell, Hath brought forth a Baby, as it hath befell,
W:To be our Redeemer from death, hell and sin, Which Adam's transgression has wrappèd us in.
W:And therefore be merry, set sorrow aside; Christ Jesus our Savior was born on this tide.

